!!!!SEGMENT: pl-kozmzk--mzk-m-159--014_walczynski-franciszek--praeludia-organi-op-5-allegro.krn
!!!cenid: 18xx:2757
!!!COM: Walczyński, Franciszek
!!!COM-rismid: pe30021989
!!!CDT: ~1852-1937
!!!CNT: Polish
!!!OTL: Praeludia organi op. 5 – Allegro
!!!PDT: 1894
!!!AGN: Secular; Prelude
!!!SMS-siglum: PL-KOZmzk
!!!SMS-shelfmark: mzk/m/159
!!!SMS-shelfwork: 014 G
!!!SMS-variant:
!!!SMS-altvar:
!!!NIFC-rismid: 1001116710
!!!URL-scan: https://repozytorium.nifc.pl/islandora/object/pl-kozmzk%3A2265/datastream/PDF/view
!!!ONB-nifc: UWAGA: numeracja plików zgodna z numeracją źrodłową
!!!OMD:14. Allegro.
**kern	**kern	**dynam
*part2	*part1	*part1
*staff2	*staff1	*
*I"[Organo]	*I"[Organo]	*
*clefF4	*clefG2	*
*k[f#c#g#d#a#e#]	*k[f#c#g#d#a#e#]	*
*F#:	*F#:	*
*M2/2	*M2/2	*
*met(c|)	*met(c|)	*
=1	=1	=1
*^	*^	*
(4F#/	4F#\	(4f#/	4f#\	f
4A#/	4A#\	4a#/	4a#\	.
4G#/	4G#\	4g#/	4g#\	.
4C#/	4C#\	4c#/	4c#\	<
=2	=2	=2	=2	=2
4F#/	4F#\	4f#/	4f#\	.
4A#/	4A#\	4a#/	4a#\	.
2c#/)	2c#\	2cc#/)	2cc#\	[
=3	=3	=3	=3	=3
*	*	*	*	*^
!	!	!	!	!	!LO:DY:b=2
(4A#/	(4F##X\	(4dd#/	(2d#\	p	p
4B/	4G#\	4b/	.	.	.
4G#/	4E#\	4cc#/	4g#\	.	.
4A#/	4F#\	4a#/	[4f#\	.	.
*	*	*	*	*v	*v
=4	=4	=4	=4	=4
4d#/	4BB\	2g#/	4f#\]	.
4c#/	4C#\	.	4e#\	.
2c#/)	2FF#;\)	2a#;/)	2f#\)	.
=5	=5	=5	=5	=5
(4F#/	1r	(4f#/	1r	f
4A#/	.	4a#/	.	.
4G##X/	.	4g##X/	.	.
4E#/	.	4e#/	.	.
=6	=6	=6	=6	=6
4A#/	1r	4a#/	1r	.
4c#/	.	4cc#/	.	.
2e#/)	.	2ee#/)	.	.
=7	=7	=7	=7	=7
(4f#/	4D#\	(4dd#/	(2a#\	p
4e#/	[4E#\	4cc#/	.	.
4d#/	4E#\]	4b#X/	4g##X\	.
4c#/	4F#\	4a#/	4a#\	.
=8	=8	=8	=8	=8
4d#/	4D#\	4b#X/	4f#\	.
!LO:SIC:v:s=4B#/	!	!	!	!
4B/	4E#\	4g##X/	8e#\L	.
.	.	.	8d#\J	.
2A#/)	2AA#;\	2a#;/)	2c#\)	.
!!LO:LB:g=original
=9	=9	=9	=9	=9
!	!	!	!	!LO:DY:b=2
1r	(4BB\	1rg	1r	fp <
.	4AA#\	.	.	.
.	4GG#\	.	.	.
.	4FF#\	.	.	.
=10	=10	=10	=10	=10
1r	4D#\	1r;g	1r	[ >
.	4BB#X\	.	.	.
.	2C#;\)	.	.	.
=11	=11	=11	=11	=11
!	!	!	!	!LO:DY:a
(2.C#/	[1FF#\	(4f#/	((2A#\	] pp
.	.	4a#/	.	.
.	.	4g#/	2B\)	.
8D#/L	.	4c#/	.	.
8E#/J	.	.	.	.
=12	=12	=12	=12	=12
[1F#/)	2FF#\]	4f#/	4A#\	.
.	.	4a#/	4c#\	.
.	2AA#\	2cc#/)	2en\)	.
=13	=13	=13	=13	=13
*	*	*	*	*^
4F#/]	(4BB\	(4dd#/	2d#\	.	.
!	!	!	!	!LO:HP:b=2	!
(2G#/	4GG#\	4b/	.	<	.
.	4C#\	4cc#/	4e#X\	.	.
4F#/	4D#\	4a#/	([4f#\	.	.
=14	=14	=14	=14	=14	=14
!	!	!	!	!	!LO:DY:a
4G#/	4BB\	2g#/	4f#\]	.	f
8c#/L	8C#\L	.	4e#\	.	.
8B/J	8C##X\J	.	.	[	.
2A#/)	2D#;\)	2f#;/)	[2f#\)	.	.
*	*	*	*	*v	*v
=15	=15	=15	=15	=15
!	!	!	!	!LO:DY:a
!	!	!	!	!LO:HP:a
(4d#/	(2BB\	1g#/	(2f#\]	pp <
4dn/	.	.	.	.
!	!LO:N:acc=n#	!	!	!
4c#/	2C#\	.	2e#\	.
[4B/	.	.	.	.
=16	=16	=16	=16	=16
!	!	!	!	!LO:HP:a
2B/]	1FF#\;)	1f#/;	1c#\)	[ >
2A#/)	.	.	.	]
*v	*v	*	*	*
*	*v	*v	*
==	==	==
*-	*-	*-
!!!system-decoration: {(s1,s2)}
!!!EED: Andrzej Borzym
!!!EST: 2021-08-08
!!!ENC: Krzysztof Stępień
!!!END: 2021-07-26
